X:1
T:Title
%%score { 1 | ( 2 3 ) }
L:1/8
M:3/4
K:Bb
V:1 treble nm="Grand Piano"
V:2 bass 
V:3 bass 
V:1
 z2 z2[Q:1/4=94] [DF]>[EG] | [DF]2 [B,D]2 [DB]>[Ec] | B2 A2 FF | A3 G F>E | D4 [DF]>[EG] | %5
 [DF]2 [B,D]2 [DB]>[Ec] | B2 A2 FF | A3 G F>E |[M:5/8] D- D3 z |[M:3/16] F3/2 | %10
[M:3/4] [DF][Fd] [DB]3 [D^F] | [EG][Ge] c3 B | A>G FF G>F |[M:5/8] [B,DF]2 [B,D]2 z | %14
[M:1/8] [A,EF] |[M:3/4] [DF][Fd] [DB]3 [D^F] | [EG][Ge] c3 B | A>G FA dc | [DB]6 |] %19
V:2
 z2 z2 [B,,B,]>[B,,B,] | [B,,B,]2 [B,,F,]2 [B,,F,]>[B,,F,] | [F,D]2 [F,E]2 [F,A,E][F,A,E] | %3
 [F,E]3 [F,E] [F,D]>[F,C] | [B,,F,B,]4 [B,,B,]>[B,,B,] | [B,,B,]2 [B,,F,]2 [B,,F,]>[B,,F,] | %6
 [F,D]2 [F,E]2 [F,A,E][F,A,E] | [F,CE]3 [F,B,E] [F,A,D]>[F,C] |[M:5/8] [B,,F,B,]- [B,,F,B,]3 z | %9
[M:3/16] [F,A,E]3/2 |[M:3/4] [B,,B,][B,,B,] [B,,F,]3 [B,,B,] | [E,B,][E,B,] [E,G,E]3 [E,G,E] | %12
 [F,E]>[F,CE] [F,A,E][F,A,E] [F,B,E]>[F,A,E] |[M:5/8] z2 F,2 z |[M:1/8] F, | %15
[M:3/4] [B,,B,][B,,B,] [B,,F,]3 [B,,B,] | [E,B,][E,B,] [E,G,E]3 [E,G,E] | %17
 [F,E]>[F,E] [F,E][F,E] [F,B,F][F,A,E] | [B,,F,]6 |] %19
V:3
 x6 | x6 | x6 | x6 | x6 | x6 | x6 | x6 |[M:5/8] x5 |[M:3/16] x3/2 |[M:3/4] x6 | x6 | x6 | %13
[M:5/8] B,,- B,,3 z |[M:1/8] x |[M:3/4] x6 | x6 | x6 | x6 |] %19

